X:30
T: High in the Reeks
C: BB
R: polka
M: 2/4
Q: 300
L: 1/8
K: Em
"Em"E>F GA|"Bm"B>c BA|"G"GE FE|"D"DE "Bm"B,2|"Em"E>F GA|"Bm"B>c BA|\
"G"GB "D"FA | "Em"GF E2 :|
"Bm"B>^c dB|"C"e>f gf|"Em"eB "G"dB|"D"Ad "Bm"B2|"Em"eB GB|"D"d>^c BA|\
"G"GB "D"FA|"Em"GF E2 :|
